build/img/cloud.svg

<?xml version="1.0" encoding="UTF-8"?> <svg xmlns="http://www.w3.org/2000/svg" width="300" height="212" viewBox="0 0 300 212" fill="none"> <g clip-path="url(#clip0)"> <path d="M248.431 82.5447C247.396 82.5447 246.343 82.5447 245.299 82.6416C243.089 56.433 220.857 35.9664 194.485 35.9664C187.478 35.9755 180.546 37.4199 174.114 40.2112C169.428 28.3372 161.292 18.1527 150.764 10.9815C140.236 3.81028 127.802 -0.0159967 115.079 -1.11502e-05C80.0998 -1.11502e-05 51.6395 28.4455 51.6395 63.4079C51.6395 64.3766 51.6395 65.3629 51.7185 66.3581C37.4213 68.3469 24.319 75.4471 14.8182 86.3544C5.31738 97.2618 0.055964 111.244 0.00036898 125.733C-0.0416792 137.704 3.51097 149.41 10.195 159.324C16.879 169.238 26.3841 176.9 37.4708 181.311C43.4015 183.742 53.9293 185.125 54.8242 183.073C55.1839 182.254 54.289 181.399 51.9378 180.316C45.8257 177.545 39.9563 174.263 34.3914 170.506C23.1967 162.58 17.2924 154.416 14.3183 148.982C10.6341 141.793 8.73203 133.817 8.77358 125.733C8.81076 112.699 13.7862 100.168 22.6904 90.6819C31.5945 81.196 43.7603 75.4657 56.7192 74.654C57.3136 74.6161 57.8941 74.4572 58.4254 74.1868C58.9566 73.9165 59.4274 73.5403 59.8091 73.0814C60.1909 72.6224 60.4755 72.0902 60.6456 71.5172C60.8157 70.9443 60.8678 70.3425 60.7987 69.7487C60.5493 67.6442 60.4204 65.5271 60.4127 63.4079C60.4127 33.3067 84.9777 8.80664 115.079 8.80664C126.784 8.84382 138.173 12.6308 147.585 19.6163C156.998 26.6017 163.944 36.4208 167.411 47.644C167.602 48.2747 167.932 48.8543 168.376 49.34C168.82 49.8257 169.367 50.2051 169.977 50.4502C170.586 50.6953 171.243 50.7999 171.898 50.7562C172.553 50.7126 173.191 50.5218 173.763 50.1979C180.175 46.5863 187.415 44.7165 194.768 44.7735C202.12 44.8304 209.331 46.8119 215.687 50.5224C222.043 54.2329 227.325 59.5438 231.01 65.9305C234.696 72.3172 236.658 79.5586 236.702 86.9392V87.4588C236.694 88.0988 236.826 88.7328 237.087 89.3166C237.348 89.9004 237.733 90.42 238.215 90.8391C238.697 91.2583 239.264 91.567 239.877 91.7437C240.49 91.9203 241.134 91.9608 241.764 91.8622C243.973 91.5178 246.205 91.3441 248.44 91.3426C259.765 91.3168 270.637 95.8044 278.668 103.82C286.699 111.835 291.232 122.722 291.271 134.09C291.271 148.049 283.568 162.403 272.417 169.502C267.153 172.945 267.057 173.597 253.616 180.29C252.107 181.038 250.441 182.051 250.923 183.099C251.248 183.821 252.757 184.138 254.853 184.138C259.753 183.998 264.595 183.04 269.18 181.303C280.022 176.577 288.907 168.239 294.332 157.697C299.758 147.156 301.391 135.057 298.957 123.446C296.523 111.835 290.17 101.424 280.972 93.9715C271.774 86.5192 260.295 82.4829 248.475 82.5447H248.431Z" fill="#231F20"></path> <path d="M62.1246 199.911V206.701H58.668V191.157H62.1246V197.198H64.0459L68.4325 191.157H72.3805L66.5288 198.696L72.8191 206.701H68.8712L63.7389 199.911H62.1246Z" fill="#231F20"></path> <path d="M80.7811 207.08C77.0087 207.08 73.1484 204.561 73.1484 198.96C73.1484 193.359 77.0087 190.805 80.7811 190.805C84.5536 190.805 88.4138 193.35 88.4138 198.96C88.4138 204.57 84.5536 207.08 80.7811 207.08ZM84.8694 198.96C84.8694 195.376 82.9393 193.614 80.7811 193.614C78.6229 193.614 76.6928 195.376 76.6928 198.96C76.6928 202.544 78.6229 204.244 80.7811 204.244C82.9393 204.244 84.8694 202.553 84.8694 198.96Z" fill="#231F20"></path> <path d="M101.773 200.087H94.86V206.701H91.4297V191.157H94.86V197.366H101.773V191.157H105.195V206.701H101.773V200.087Z" fill="#231F20"></path> <path d="M121.947 210.373V206.701H110.629V210.373H107.523V204.015H108.401C110.155 204.015 111.033 201.76 111.278 196.089L111.506 191.148H122.798V204.006H125.105V210.365L121.947 210.373ZM114.489 193.87L114.349 196.512C114.112 200.616 113.542 202.835 112.331 204.024H119.35V193.87H114.489Z" fill="#231F20"></path> <path d="M138.444 206.701V195.922L131.075 206.701H127.645V191.157H131.075V201.989L138.444 191.157H141.875V206.701H138.444Z" fill="#231F20"></path> <path d="M161.224 210.373H158.109V206.701H145.73V191.157H149.143V203.988H155.478V191.157H158.908V203.988H161.215L161.224 210.373Z" fill="#231F20"></path> <path d="M174.585 206.701V195.922L167.215 206.701H163.785V191.157H167.215V201.989L174.585 191.157H178.015V206.701H174.585Z" fill="#231F20"></path> <path d="M188.348 207.08C184.575 207.08 180.715 204.561 180.715 198.96C180.715 193.359 184.575 190.805 188.348 190.805C192.12 190.805 195.98 193.35 195.98 198.96C195.98 204.57 192.129 207.08 188.348 207.08ZM192.436 198.96C192.436 195.376 190.506 193.614 188.348 193.614C186.189 193.614 184.259 195.376 184.259 198.96C184.259 202.544 186.189 204.244 188.348 204.244C190.506 204.244 192.436 202.553 192.436 198.96Z" fill="#231F20"></path> <path d="M209.288 200.087H202.383V206.701H198.953V191.157H202.383V197.366H209.288V191.157H212.718V206.701H209.288V200.087Z" fill="#231F20"></path> <path d="M223.373 204.217C225.127 204.217 226.566 203.495 227.172 202.051H230.541C230.095 203.554 229.163 204.864 227.891 205.775C226.62 206.686 225.082 207.145 223.522 207.08C218.539 207.08 215.688 203.266 215.688 198.81C215.688 194.134 218.89 190.805 223.294 190.805C228.04 190.805 231.005 194.68 230.725 199.911H219.17C219.399 202.8 221.416 204.217 223.373 204.217ZM227.233 197.401C227.232 196.883 227.129 196.371 226.929 195.894C226.73 195.416 226.438 194.984 226.071 194.62C225.704 194.256 225.269 193.969 224.791 193.776C224.312 193.582 223.801 193.485 223.285 193.491C222.224 193.467 221.197 193.865 220.427 194.597C219.656 195.329 219.205 196.337 219.17 197.401H227.233Z" fill="#231F20"></path> <path d="M236.992 193.236C237.475 192.454 238.158 191.816 238.969 191.389C239.781 190.961 240.691 190.76 241.607 190.805C245.379 190.805 248.257 193.958 248.257 198.925C248.257 203.892 245.379 207.08 241.607 207.08C240.691 207.125 239.781 206.923 238.969 206.496C238.158 206.069 237.475 205.431 236.992 204.649V211.765H233.57V191.157H236.992V193.236ZM244.686 198.925C244.686 195.666 243.247 193.641 240.852 193.641C238.606 193.641 236.851 195.402 236.851 198.925C236.851 202.447 238.606 204.279 240.852 204.279C243.247 204.314 244.686 202.227 244.686 198.925Z" fill="#231F20"></path> <path d="M63.2214 149.836C69.1433 149.836 74.1879 153.755 74.1879 161.558C74.1879 169.361 69.1433 173.244 63.2214 173.244C57.2995 173.244 52.2461 169.361 52.2461 161.558C52.2461 153.755 57.2907 149.836 63.2214 149.836ZM63.2214 167.097C65.1076 167.097 66.5552 165.688 66.5552 161.558C66.5552 157.428 65.1076 155.983 63.2214 155.983C61.3351 155.983 59.8876 157.428 59.8876 161.558C59.8876 165.688 61.3264 167.097 63.2214 167.097V167.097Z" fill="#231F20"></path> <path d="M76.0078 159.207V158.52C76.2271 150.391 78.6398 143.619 88.2903 142.668L94.7737 142.051V148.832L86.8076 149.713C83.8774 150.083 81.5437 151.201 81.2805 155.376C82.5439 152.848 85.325 152.029 87.8078 152.029C92.6594 152.029 97.0284 155.552 97.0284 162.307C97.0284 169.581 91.5452 173.209 86.3251 173.209C80.719 173.244 76.0078 169.088 76.0078 159.207ZM89.4922 162.342C89.4922 158.669 87.9306 157.595 86.2637 157.595C84.5968 157.595 83.3071 158.714 83.3071 162.342C83.3071 165.609 84.781 167.097 86.3427 167.097C87.9043 167.097 89.4922 165.812 89.4922 162.342Z" fill="#231F20"></path> <path d="M98.2656 166.684H98.9324C100.301 166.684 101.635 165.274 101.968 157.93L102.345 150.497H120.199V172.707H112.794V156.521H109.162L108.829 161.725C108.416 168.005 106.083 172.707 99.6693 172.707H98.2656V166.684Z" fill="#231F20"></path> <path d="M133.799 155.076C133.39 155.034 132.976 155.075 132.583 155.197C132.19 155.318 131.825 155.518 131.511 155.785C131.196 156.051 130.938 156.378 130.753 156.747C130.567 157.115 130.457 157.518 130.43 157.93H124.052C124.385 153.711 127.728 149.704 134.317 149.704C140.028 149.704 144.099 152.1 144.029 159.532V163.786C143.98 166.764 144.104 169.743 144.397 172.707H137.501V169.819C136.019 172.258 133.545 173.244 130.728 173.244C126.833 173.244 123.613 170.558 123.613 166.595C123.613 161.435 128.386 159.251 136.773 158.669V158.053C136.764 155.569 135.396 155.076 133.799 155.076ZM131.018 165.644C131.018 166.595 131.729 167.67 133.466 167.67C135.396 167.67 137.028 166.789 137.028 163.372V162.712C133.097 163.002 131.018 163.751 131.018 165.688V165.644Z" fill="#231F20"></path> <path d="M159.678 165.398C158.051 165.786 156.385 165.981 154.713 165.979C150.265 165.979 147.562 163.663 147.562 158.713V150.497H154.976V157.428C154.976 159.946 155.748 160.36 157.862 160.36C158.476 160.366 159.088 160.283 159.678 160.114V150.497H167.092V172.707H159.678V165.398Z" fill="#231F20"></path> <path d="M171.484 150.497H178.898V158.344H184.714V150.497H192.137V172.707H184.723V164.367H178.907V172.707H171.493L171.484 150.497Z" fill="#231F20"></path> <path d="M196.574 150.497H203.979V156.979H206.611C212.831 156.979 215.463 159.374 215.463 164.737C215.463 170.726 213.129 172.707 207.058 172.707H196.574V150.497ZM206.391 167.133C207.909 167.133 208.874 166.639 208.874 164.737C208.874 163.046 207.909 162.553 206.427 162.553H203.979V167.133H206.391ZM217.954 150.497H225.359V172.707H217.954V150.497Z" fill="#231F20"></path> <path d="M229.812 150.497H236.664V162.826L243.525 150.497H250.377V172.707H243.525V160.607L236.664 172.707H229.812V150.497ZM232.927 142.773H237.314C237.498 143.76 238.428 144.262 240.095 144.262C241.762 144.262 242.727 143.76 242.876 142.773H247.262C246.964 145.829 244.63 147.934 240.077 147.934C235.524 147.934 233.146 145.829 232.927 142.773V142.773Z" fill="#231F20"></path> </g> <defs> <clipPath id="clip0"> <rect width="300" height="211.765" fill="white"></rect> </clipPath> </defs> </svg>

<svg xmlns="http://www.w3.org/2000/svg" width="300" height="212" viewBox="0 0 300 212" fill="none"><g clip-path="url(#clip0)" fill="#231F20"><path d="M248.431 82.545c-1.035 0-2.088 0-3.132.097-2.21-26.209-24.442-46.676-50.814-46.676a51.336 51.336 0 00-20.371 4.245 63.614 63.614 0 00-23.35-29.23A63.242 63.242 0 00115.079 0c-34.98 0-63.44 28.445-63.44 63.408 0 .969 0 1.955.08 2.95a59.882 59.882 0 00-36.9 19.996A60.31 60.31 0 000 125.733a59.719 59.719 0 0010.195 33.591 59.376 59.376 0 0027.276 21.987c5.93 2.431 16.458 3.814 17.353 1.762.36-.819-.535-1.674-2.886-2.757a119.666 119.666 0 01-17.547-9.81c-11.194-7.926-17.099-16.09-20.073-21.524a50.414 50.414 0 01-5.544-23.249A51.43 51.43 0 0122.69 90.682a51.05 51.05 0 0134.03-16.028 4.375 4.375 0 003.09-1.573 4.407 4.407 0 00.989-3.332 55.597 55.597 0 01-.386-6.341c0-30.101 24.565-54.601 54.666-54.601a54.832 54.832 0 0132.506 10.81 55.176 55.176 0 0119.826 28.027 4.407 4.407 0 002.566 2.806 4.368 4.368 0 003.786-.252 42.132 42.132 0 0121.005-5.425 42.138 42.138 0 0120.919 5.75A42.338 42.338 0 01231.01 65.93a42.54 42.54 0 015.692 21.01v.519a4.418 4.418 0 001.513 3.38 4.382 4.382 0 003.549 1.023 43.528 43.528 0 016.676-.52 42.65 42.65 0 0130.228 12.478 42.975 42.975 0 0112.603 30.27c0 13.959-7.703 28.313-18.854 35.412-5.264 3.443-5.36 4.095-18.801 10.788-1.509.748-3.175 1.761-2.693 2.809.325.722 1.834 1.039 3.93 1.039 4.9-.14 9.742-1.098 14.327-2.835a51.393 51.393 0 0025.152-23.606 51.683 51.683 0 004.625-34.251 51.54 51.54 0 00-17.985-29.474 51.193 51.193 0 00-32.497-11.427h-.044zM62.125 199.911v6.79h-3.457v-15.544h3.457v6.041h1.92l4.388-6.041h3.947l-5.851 7.539 6.29 8.005h-3.948l-5.132-6.79h-1.614zm18.656 7.169c-3.772 0-7.633-2.519-7.633-8.12 0-5.601 3.86-8.155 7.633-8.155s7.633 2.545 7.633 8.155c0 5.61-3.86 8.12-7.633 8.12zm4.088-8.12c0-3.584-1.93-5.346-4.088-5.346-2.158 0-4.088 1.762-4.088 5.346s1.93 5.284 4.088 5.284c2.158 0 4.088-1.691 4.088-5.284zm16.904 1.127H94.86v6.614h-3.43v-15.544h3.43v6.209h6.913v-6.209h3.422v15.544h-3.422v-6.614zm20.174 10.286v-3.672h-11.318v3.672h-3.106v-6.358h.878c1.754 0 2.632-2.255 2.877-7.926l.228-4.941h11.292v12.858h2.307v6.359l-3.158.008zm-7.458-16.503l-.14 2.642c-.237 4.104-.807 6.323-2.018 7.512h7.019V193.87h-4.861zm23.955 12.831v-10.779l-7.369 10.779h-3.43v-15.544h3.43v10.832l7.369-10.832h3.431v15.544h-3.431zm22.78 3.672h-3.115v-3.672H145.73v-15.544h3.413v12.831h6.335v-12.831h3.43v12.831h2.307l.009 6.385zm13.361-3.672v-10.779l-7.37 10.779h-3.43v-15.544h3.43v10.832l7.37-10.832h3.43v15.544h-3.43zm13.763.379c-3.773 0-7.633-2.519-7.633-8.12 0-5.601 3.86-8.155 7.633-8.155 3.772 0 7.632 2.545 7.632 8.155 0 5.61-3.851 8.12-7.632 8.12zm4.088-8.12c0-3.584-1.93-5.346-4.088-5.346-2.159 0-4.089 1.762-4.089 5.346s1.93 5.284 4.089 5.284c2.158 0 4.088-1.691 4.088-5.284zm16.852 1.127h-6.905v6.614h-3.43v-15.544h3.43v6.209h6.905v-6.209h3.43v15.544h-3.43v-6.614zm14.085 4.13c1.754 0 3.193-.722 3.799-2.166h3.369a7.043 7.043 0 01-2.65 3.724 7 7 0 01-4.369 1.305c-4.983 0-7.834-3.814-7.834-8.27 0-4.676 3.202-8.005 7.606-8.005 4.746 0 7.711 3.875 7.431 9.106H219.17c.229 2.889 2.246 4.306 4.203 4.306zm3.86-6.816a3.916 3.916 0 00-1.162-2.781 3.882 3.882 0 00-2.786-1.129 4.016 4.016 0 00-2.858 1.106 4.05 4.05 0 00-1.257 2.804h8.063zm9.759-4.165a5.139 5.139 0 011.977-1.847 5.115 5.115 0 012.638-.584c3.772 0 6.65 3.153 6.65 8.12 0 4.967-2.878 8.155-6.65 8.155a5.125 5.125 0 01-4.615-2.431v7.116h-3.422v-20.608h3.422v2.079zm7.694 5.689c0-3.259-1.439-5.284-3.834-5.284-2.246 0-4.001 1.761-4.001 5.284 0 3.522 1.755 5.354 4.001 5.354 2.395.035 3.834-2.052 3.834-5.354z"/><path d="M63.221 149.836c5.922 0 10.967 3.919 10.967 11.722 0 7.803-5.045 11.686-10.967 11.686-5.921 0-10.975-3.883-10.975-11.686s5.045-11.722 10.975-11.722zm0 17.261c1.887 0 3.334-1.409 3.334-5.539s-1.447-5.575-3.334-5.575c-1.886 0-3.333 1.445-3.333 5.575s1.438 5.539 3.333 5.539zm12.787-7.89v-.687c.22-8.129 2.632-14.901 12.282-15.852l6.484-.617v6.781l-7.966.881c-2.93.37-5.264 1.488-5.528 5.663 1.264-2.528 4.045-3.347 6.528-3.347 4.851 0 9.22 3.523 9.22 10.278 0 7.274-5.483 10.902-10.703 10.902-5.606.035-10.317-4.121-10.317-14.002zm13.484 3.135c0-3.673-1.561-4.747-3.228-4.747-1.667 0-2.957 1.119-2.957 4.747 0 3.267 1.474 4.755 3.036 4.755 1.561 0 3.15-1.285 3.15-4.755zm8.774 4.342h.666c1.369 0 2.703-1.41 3.036-8.754l.377-7.433h17.854v22.21h-7.405v-16.186h-3.632l-.333 5.204c-.413 6.28-2.746 10.982-9.16 10.982h-1.403v-6.023zm35.533-11.608a3.052 3.052 0 00-2.288.709 3.07 3.07 0 00-1.081 2.145h-6.378c.333-4.219 3.676-8.226 10.265-8.226 5.711 0 9.782 2.396 9.712 9.828v4.254a77.699 77.699 0 00.368 8.921h-6.896v-2.888c-1.482 2.439-3.956 3.425-6.773 3.425-3.895 0-7.115-2.686-7.115-6.649 0-5.16 4.773-7.344 13.16-7.926v-.616c-.009-2.484-1.377-2.977-2.974-2.977zm-2.781 10.568c0 .951.711 2.026 2.448 2.026 1.93 0 3.562-.881 3.562-4.298v-.66c-3.931.29-6.01 1.039-6.01 2.976v-.044zm28.66-.246a21.29 21.29 0 01-4.965.581c-4.448 0-7.151-2.316-7.151-7.266v-8.216h7.414v6.931c0 2.518.772 2.932 2.886 2.932a6.37 6.37 0 001.816-.246v-9.617h7.414v22.21h-7.414v-7.309zm11.806-14.901h7.414v7.847h5.816v-7.847h7.423v22.21h-7.414v-8.34h-5.816v8.34h-7.414l-.009-22.21zm25.09 0h7.405v6.482h2.632c6.22 0 8.852 2.395 8.852 7.758 0 5.989-2.334 7.97-8.405 7.97h-10.484v-22.21zm9.817 16.636c1.518 0 2.483-.494 2.483-2.396 0-1.691-.965-2.184-2.447-2.184h-2.448v4.58h2.412zm11.563-16.636h7.405v22.21h-7.405v-22.21zm11.858 0h6.852v12.329l6.861-12.329h6.852v22.21h-6.852v-12.1l-6.861 12.1h-6.852v-22.21zm3.115-7.724h4.387c.184.987 1.114 1.489 2.781 1.489s2.632-.502 2.781-1.489h4.386c-.298 3.056-2.632 5.161-7.185 5.161-4.553 0-6.931-2.105-7.15-5.161z"/></g><defs><clipPath id="clip0"><path fill="#fff" d="M0 0h300v211.765H0z"/></clipPath></defs></svg>
